build/finance/PercentOutline.svg

<svg xmlns="http://www.w3.org/2000/svg" fill="none" viewBox="0 0 24 24" focusable="false"><path d="M0 0H24V24H0z"/><path fill="#74767B" fill-rule="evenodd" d="M3 12C3 7.02944 7.02944 3 12 3C16.9706 3 21 7.02944 21 12C21 16.9706 16.9706 21 12 21C7.02944 21 3 16.9706 3 12ZM4.3 12C4.3 7.74741 7.74741 4.3 12 4.3C16.2526 4.3 19.7 7.74741 19.7 12C19.7 16.2526 16.2526 19.7 12 19.7C7.74741 19.7 4.3 16.2526 4.3 12ZM7.30018 16.699C7.04589 16.4456 7.04552 16.0345 7.29936 15.7806L15.7846 7.29533C16.0385 7.04149 16.4504 7.04112 16.7047 7.29451C16.959 7.5479 16.9594 7.95909 16.7055 8.21293L8.22024 16.6982C7.9664 16.9521 7.55447 16.9524 7.30018 16.699ZM10.1001 9.5C10.1001 10.3277 9.42777 11 8.6001 11C7.77242 11 7.1001 10.3277 7.1001 9.5C7.1001 8.67232 7.77242 8 8.6001 8C9.42777 8 10.1001 8.67232 10.1001 9.5ZM15.3999 16C16.2276 16 16.8999 15.3277 16.8999 14.5C16.8999 13.6723 16.2276 13 15.3999 13C14.5722 13 13.8999 13.6723 13.8999 14.5C13.8999 15.3277 14.5722 16 15.3999 16Z"/></svg>

<svg xmlns="http://www.w3.org/2000/svg" fill="none" viewBox="0 0 24 24" focusable="false"><path fill="#74767B" fill-rule="evenodd" d="M3 12c0-4.98 4.02-9 9-9 4.97 0 9 4.02 9 9a9 9 0 0 1-9 9c-4.98 0-9-4.03-9-9m1.3 0a7.7 7.7 0 1 1 15.4 0c0 4.25-3.45 7.7-7.7 7.7-4.26 0-7.7-3.45-7.7-7.7m3 4.69a.637.637 0 0 1-.01-.91l8.49-8.49c.25-.25.67-.25.92 0s.25.66 0 .92l-8.48 8.48a.64.64 0 0 1-.92 0m2.8-7.19c0 .82-.68 1.5-1.5 1.5-.83 0-1.5-.68-1.5-1.5 0-.83.67-1.5 1.5-1.5.82 0 1.5.67 1.5 1.5m5.29 6.5c.83 0 1.5-.68 1.5-1.5 0-.83-.67-1.5-1.5-1.5-.82 0-1.5.67-1.5 1.5 0 .82.68 1.5 1.5 1.5"/></svg>
